RestoDelMundo/Paises Bajos/Otras Categorias/Vv Bennekom.svg

<svg xmlns="http://www.w3.org/2000/svg" viewBox="0 0 612 792"><path fill="#db3d3b" d="m80.456 113.599 107.502 566h42.655l-107.496-566ZM134.749 113.599l107.487 566h42.655l-107.487-566ZM263.044 280.34l-15.006-78.729h-42.091l15.002 78.729ZM317.566 280.34l-15.011-78.729h-42.09l15.001 78.729ZM494.821 297.625H345.917l-16.773 44.946-8.79-45.486H278.26l23.043 120.091-7.342 19.674-27.01-139.765h-42.09l73.407 382.514h42.605L307.852 508.73h11.018l32.786 170.869h42.615L361.253 508.73h107.464c12.233 1.1 34.27-11.773 37.618-31.081l22.826-142.731c2.219-16.291-15.81-38.458-34.34-37.293m-26.334 146.663c-1.326 13.611-7.36 23.506-18.077 23.506h-63.285l12.409-49.382h50.794c21.248 0 19.485 12.265 18.159 25.876m15.581-81.902c-1.208 9.11-5.827 22.197-18.68 22.197l-57.395.161 11.932-47.483h39.677c20.228 0 26.544 9.46 24.466 25.125"/></svg>

<svg enable-background="new 0 0 612 792" viewBox="0 0 612 792" xmlns="http://www.w3.org/2000/svg"><path d="M 80.456 113.599 L 187.958 679.599 L 230.613 679.599 L 123.117 113.599 Z" fill="#db3d3b"/><path d="M 134.749 113.599 L 242.236 679.599 L 284.891 679.599 L 177.404 113.599 Z" fill="#db3d3b"/><path d="M 263.044 280.34 L 248.038 201.611 L 205.947 201.611 L 220.949 280.34 Z" fill="#db3d3b"/><path d="M 317.566 280.34 L 302.555 201.611 L 260.465 201.611 L 275.466 280.34 Z" fill="#db3d3b"/><path d="M 494.821 297.625 H 345.917 l -16.773 44.946 l -8.79 -45.486 H 278.26 l 23.043 120.091 l -7.342 19.674 l -27.01 -139.765 h -42.09 l 73.407 382.514 h 42.605 L 307.852 508.73 h 11.018 l 32.786 170.869 h 42.615 L 361.253 508.73 h 107.464 c 12.233 1.1 34.27 -11.773 37.618 -31.081 l 22.826 -142.731 C 531.38 318.627 513.351 296.46 494.821 297.625 z M 468.487 444.288 c -1.326 13.611 -7.36 23.506 -18.077 23.506 h -63.285 l 12.409 -49.382 h 50.794 C 471.576 418.412 469.813 430.677 468.487 444.288 z M 484.068 362.386 c -1.208 9.11 -5.827 22.197 -18.68 22.197 l -57.395 .161 l 11.932 -47.483 h 39.677 C 479.83 337.261 486.146 346.721 484.068 362.386 z" fill="#db3d3b"/></svg>
